icons/pin-24.svg

<svg xmlns="http://www.w3.org/2000/svg" width="24" height="24" viewBox="0 0 24 24"><path d="M7.886 1.553a1.75 1.75 0 012.869.604l.633 1.629a5.667 5.667 0 003.725 3.395l3.959 1.131a1.749 1.749 0 01.757 2.92L16.06 15l5.594 5.595a.749.749 0 01-.326 1.275.749.749 0 01-.734-.215L15 16.061l-3.768 3.768a1.749 1.749 0 01-2.92-.757l-1.131-3.96a5.665 5.665 0 00-3.395-3.724l-1.63-.633a1.75 1.75 0 01-.603-2.869zm6.589 12.912l4.293-4.294a.25.25 0 00-.108-.417L14.7 8.623A7.165 7.165 0 019.99 4.33L9.357 2.7a.25.25 0 00-.41-.086L2.614 8.946a.25.25 0 00.086.41l1.63.634a7.167 7.167 0 014.294 4.71l1.13 3.96a.25.25 0 00.417.108l4.294-4.293z"/></svg>

<svg xmlns="http://www.w3.org/2000/svg" width="24" height="24" viewBox="0 0 24 24">
  <defs/>
  <path d="M7.886,1.553 C8.304,1.135 8.905,0.956 9.484,1.078 C10.063,1.2 10.541,1.606 10.755,2.157 L11.388,3.786 C12.03,5.438 13.409,6.694 15.113,7.181 L19.072,8.312 C19.668,8.482 20.13,8.955 20.285,9.556 C20.441,10.156 20.267,10.794 19.829,11.232 L16.06,15 L21.654,20.595 C21.855,20.782 21.937,21.064 21.869,21.329 C21.802,21.595 21.594,21.803 21.328,21.87 C21.063,21.938 20.781,21.856 20.594,21.655 L15,16.061 L11.232,19.829 C10.794,20.267 10.156,20.441 9.556,20.285 C8.955,20.13 8.482,19.668 8.312,19.072 L7.181,15.112 C6.694,13.408 5.438,12.03 3.786,11.388 L2.156,10.755 C1.605,10.541 1.199,10.063 1.077,9.484 C0.956,8.905 1.135,8.304 1.553,7.886 Z M14.475,14.465 L18.768,10.171 C18.831,10.108 18.855,10.017 18.833,9.932 C18.811,9.846 18.745,9.778 18.66,9.754 L14.7,8.623 C12.545,8.007 10.802,6.419 9.99,4.33 L9.357,2.7 C9.326,2.621 9.258,2.563 9.175,2.546 C9.093,2.529 9.007,2.554 8.947,2.614 L2.614,8.946 C2.554,9.006 2.529,9.092 2.546,9.174 C2.563,9.257 2.621,9.325 2.7,9.356 L4.33,9.99 C6.419,10.802 8.008,12.545 8.624,14.7 L9.754,18.66 C9.778,18.745 9.846,18.811 9.932,18.833 C10.017,18.855 10.108,18.831 10.171,18.768 L14.465,14.475 Z"/>
</svg>
